X:8
T:An Samhramh
Z:Jack Campin, http://www.campin.me.uk/
B:Captain Eoghan Anderson: Measan Milis as an Lios (The Sweet Lapdog of Lismore), 1925
F:http://www.campin.me.uk/Music/Lismore.abc
I:last edit 17-12-2013
M:2/4
L:1/8
Q:1/4=100
K:C
G>E|C2  CE      |G2 GA |c2    ed      |   dc c
  A|G>A c>A     |CE E>C|D>C   D>E     |[1 D2 :|\
                                       [2 C3 ||
  c|c2  ed      |dc cG |A2    c>A     |   G2 E
  F|GE  DC      |C2 c>A|GE    DC      |   D2 E
  f|gf  e/d/c/B/|c2 cG |Af/e/ d/c/B/A/|   G2 E
  F|G2  AG      |GA cf |e2    dc      |   c3 |]

